X: 377
T: Bir Gün Olsun Ara
C: Ömer Sami Güpgüp
O: Turkey
F: http://compmusic.upf.edu/node/140
N: huzzam--sarki--curcuna--bir_gun--omer_sami_gupgup
N: makam= huzzam
N: form= sarki
N: usul= curcuna = 10/8
M: 10/8
L: 1/16
K: C _1/4B _3/4e ^3/4f 
Q: 1/4=168
%%MIDI tuningsystem comma53
g3^f e2d4c4d6  | g2^f2 z2z4gf edc4z2  | \
w:  Bir  *  gün  *  ol sun   |  a ra  SAZ  | 
d4 e2^f3gg2 fee4g2  | 
w:  bir  *  gün  *  ol *  *  sun   | 
^f6g2 f2ag f2g4z2  | a2g2 _7/8b2a2 g2g^f2egf eded  | 
w:  sor   SAZ  |  bir  *  *  gün  *  ol *  *  sun   | 
d6^f2 e2dc B^AB4z2  | g3^f e2d4c4d6  | \
w:  sor   SAZ  |  Bir  *  gün  *  ol sun   | 
g2^f2 z2z4gf edc4z2  | 
w:  a ra  SAZ  | 
d4 e2^f3gg2 fee4g2  | ^f6g2 f2ag f2g4z2  | \
w:  bir  *  gün  *  ol *  *  sun   |  sor   SAZ  | 
a2g2 _7/8b2a2 g2g^f2egf eded  | 
w:  bir  *  *  gün  *  ol *  *  sun   | 
d6^f2 e2de fag4z2  | z4 ^f2g4gf g2g6  | \
w:  sor   SAZ  |  U nut tum   | 
z4 g2a4^f4z6  | 
w:  de mek le   | 
z4 g2g4g2 g2g6  | b8-b2^ag ^f^ef6  | \
w:  u nu ta maz  |  sın    | 
g6g2 ^f2e2 d2e4z2  | g2^f2 g2f4e2 d2e4z2  | 
w:  SAZ  |   | 
z4 g2^fe d2d8-d2  | z4 d2e4c4z6  | z4 d2e4e2 e2e4d2  | \
w:  U nut *  *  tum   |  de mek le   |  u nu ta maz  | 
^f8-^f2f2 g2e4d2  | 
w:  sın    | 
d4 d2d4e2 d2c4B2  | B4 g2^a4bc' bab6  | \
w:  *  u nu ta maz  |  sın   SAZ  | 
z4 g2^a4b2 c'2b2 a2g2  | 
w:  Ne  ken di ni  kan  | 
g4 ^1/4f2_1/4e4dc B^AB6  | z4 d2d4z4^c2 d2B2  | \
w:  dır   |  ne  de  be ni   | 
d8-d2^c4d6  | z4 a2g4z4^f2 e2d2  | 
w:  yor    |  ne  de  be ni   | 
d6^f2 e2de fag4z2  | z4 ^f2g4gf g2g6  | \
w:  yor   SAZ  |  Mâ zî nin   | 
z4 g2a4^f4z6  | 
w:  e lin den   | 
z4 g4 g2g2 g2g6  | b8-b2^ag ^f^ef6  | \
w:  kur tu la maz  |  sın    | 
g6g2 ^f2e2 d2e4z2  | g2^f2 g2f4e2 d2e4z2  | 
w:  SAZ  |   | 
z4 g2^fe d2d8-d2  | z4 d2e4c4z6  | z4 d4 e2e2 e2e4d2  | \
w:  Mâ zî *  *  nin   |  e lin den   |  kur tu la maz  | 
^f8-^f2f2 g2e4d2  | 
w:  sın    | 
d4 d4 d2e2 d2c4B2  | B4 G2^A4Bc BAB6  | |


